assets/Person lifting weights/Medium-Dark/Flat/person_lifting_weights_flat_medium-dark.svg

<svg width="32" height="32" viewBox="0 0 32 32" fill="none" xmlns="http://www.w3.org/2000/svg">
<path d="M11 30V27.5L9.10188 28C9.10188 28 8.57153 28.38 7.18516 29.2C6.87811 29.38 7.04559 30 7.04559 30H11Z" fill="#533566"/>
<path d="M21.0095 30L21 27.5L22.8917 28C22.8917 28 23.2511 28.38 24.8118 29.2C25.1239 29.36 24.9537 30 24.9537 30H21.0095Z" fill="#533566"/>
<path d="M14.5 14.8779L12.3229 16L7.86116 7.01291C7.60732 6.49652 7.80259 6.34757 8.3005 6.08937L8.54457 6.02979C8.05642 6.27805 10.8584 7.53923 10.0969 6L14.5 14.8779Z" fill="#966661"/>
<path d="M17.5 14.8779L19.6771 16L24.1388 7.01291C24.3927 6.49652 24.1974 6.34757 23.6995 6.08937L23.4554 6.02979C23.9436 6.27805 21.1416 7.53923 21.9031 6L17.5 14.8779Z" fill="#966661"/>
<path d="M21.1552 13.4834C21.208 13.3624 21.1592 13.2215 21.0427 13.1592L18.5 11.8L18.0001 14L18.0401 14.07C17.4501 13.7 16.7501 13.47 16.0001 13.47C15.2601 13.47 14.5701 13.69 13.9801 14.06L14.0101 14L13.55 11.8L10.9597 13.1599C10.8421 13.2217 10.7924 13.3633 10.8455 13.485C11.1376 14.1553 12 16.2287 12 17.35V22H20V17.35C20 16.2278 20.8637 14.152 21.1552 13.4834Z" fill="#FF6723"/>
<path d="M13.3999 13C13.5299 13.09 13.6799 13.15 13.8499 13.15L13.8999 13.87C13.9299 14.08 13.9799 14.27 14.0699 14.45C13.6699 14.29 13.3999 13.9 13.3999 13.46V13Z" fill="#2D242D"/>
<path d="M18 14.43C18.08 14.26 18.13 14.07 18.16 13.87L18.21 13.15C18.36 13.14 18.51 13.09 18.63 13V13.46C18.63 13.88 18.38 14.26 18 14.43Z" fill="#2D242D"/>
<path d="M14.5 12.8199C14.5 13.2342 14.1642 13.5699 13.75 13.5699C13.3358 13.5699 13 13.2342 13 12.8199C13 12.4057 13.3358 12.0699 13.75 12.0699C14.1642 12.0699 14.5 12.4057 14.5 12.8199Z" fill="#8B5C56"/>
<path d="M19 12.8199C19 13.2342 18.6642 13.5699 18.25 13.5699C17.8358 13.5699 17.5 13.2342 17.5 12.8199C17.5 12.4057 17.8358 12.0699 18.25 12.0699C18.6642 12.0699 19 12.4057 19 12.8199Z" fill="#8B5C56"/>
<path d="M16.53 9.28003H15.4665C14.2773 9.28003 13.3781 10.2995 13.5135 11.5663L13.6875 14.3673C13.8132 15.3174 14.606 16.03 15.5438 16.03H15.9982H16.4526C17.3905 16.03 18.1832 15.3174 18.3089 14.3673L18.483 11.5663C18.6377 10.3489 17.7192 9.28003 16.53 9.28003Z" fill="#966661"/>
<path d="M15.9929 14.6807C15.7528 14.6807 15.5395 14.6207 15.3528 14.5107C15.2906 14.4707 15.2194 14.5507 15.2639 14.6207C15.4239 14.8907 15.6906 15.0707 16.0017 15.0707C16.3129 15.0707 16.5796 14.8907 16.7396 14.6207C16.7752 14.5507 16.7129 14.4707 16.6507 14.5107C16.4462 14.6207 16.2329 14.6807 15.9929 14.6807Z" fill="#990838"/>
<path d="M15.8199 13.135L15.5599 13.975C15.5099 14.145 15.6399 14.325 15.8099 14.325H16.1899C16.3699 14.325 16.4999 14.155 16.4399 13.975L16.1799 13.135C16.1399 12.955 15.8799 12.955 15.8199 13.135Z" fill="#75443E"/>
<path d="M14.2532 13.1896C14.3271 12.9032 14.5766 12.7 14.8815 12.7C15.1956 12.7 15.4636 12.9217 15.5098 13.2174C15.5282 13.2913 15.4728 13.3467 15.4081 13.3467H14.3733C14.2994 13.3467 14.2347 13.2728 14.2532 13.1896Z" fill="white"/>
<path d="M17.7602 13.1896C17.6862 12.9032 17.4368 12.7 17.1319 12.7C16.8177 12.7 16.5498 12.9217 16.5036 13.2174C16.4851 13.2913 16.5406 13.3467 16.6052 13.3467H17.6401C17.714 13.3467 17.7786 13.2728 17.7602 13.1896Z" fill="white"/>
<path d="M14.5674 13.236C14.5674 13.005 14.7522 12.8202 14.9832 12.8202C15.2049 12.8202 15.3897 13.005 15.3989 13.236C15.3989 13.2729 15.3897 13.3099 15.3805 13.3468H14.5859C14.5766 13.3099 14.5674 13.2729 14.5674 13.236Z" fill="#7D4533"/>
<path d="M17.4461 13.236C17.4461 13.005 17.2613 12.8202 17.0303 12.8202C16.8085 12.8202 16.6237 13.005 16.6145 13.236C16.6145 13.2729 16.6237 13.3099 16.633 13.3468L17.4276 13.3468C17.4368 13.3099 17.4461 13.2729 17.4461 13.236Z" fill="#7D4533"/>
<path d="M14.9084 13.0691C14.9084 13.1096 14.8755 13.1425 14.8349 13.1425C14.7944 13.1425 14.7615 13.1096 14.7615 13.0691C14.7615 13.0285 14.7944 12.9956 14.8349 12.9956C14.8755 12.9956 14.9084 13.0285 14.9084 13.0691Z" fill="white"/>
<path d="M16.9831 13.0693C16.9831 13.1099 16.9502 13.1428 16.9096 13.1428C16.8691 13.1428 16.8362 13.1099 16.8362 13.0693C16.8362 13.0287 16.8691 12.9958 16.9096 12.9958C16.9502 12.9958 16.9831 13.0287 16.9831 13.0693Z" fill="white"/>
<path d="M14.9739 12.9956C15.1125 12.9956 15.2141 13.1065 15.2141 13.2358C15.2141 13.2728 15.2049 13.3097 15.1771 13.3467H14.7614C14.7429 13.3097 14.7336 13.2728 14.7336 13.2358C14.7336 13.0972 14.8445 12.9956 14.9739 12.9956Z" fill="black"/>
<path d="M17.0398 12.9958C16.9012 12.9958 16.7996 13.1067 16.7996 13.2361C16.7996 13.273 16.8088 13.31 16.8365 13.3469H17.2523C17.2708 13.31 17.28 13.273 17.28 13.2361C17.28 13.0975 17.1691 12.9958 17.0398 12.9958Z" fill="black"/>
<path d="M14.3224 12.0298L14.3237 12.0296L14.3338 12.0284C14.3433 12.0273 14.3584 12.026 14.3781 12.0251C14.4176 12.0233 14.4753 12.0235 14.5449 12.0319C14.6841 12.0486 14.8685 12.0975 15.0508 12.2265C15.1126 12.2702 15.1982 12.2555 15.2419 12.1937C15.2856 12.1319 15.2709 12.0463 15.2091 12.0026C14.9814 11.8415 14.7508 11.7804 14.5775 11.7596C14.4909 11.7492 14.418 11.7488 14.3659 11.7511C14.3398 11.7523 14.3189 11.7542 14.3039 11.7558C14.2964 11.7566 14.2903 11.7574 14.2859 11.758L14.2804 11.7588L14.2786 11.7591L14.2775 11.7593C14.2028 11.7717 14.1523 11.8424 14.1647 11.9171C14.1772 11.9917 14.2477 12.0422 14.3224 12.0298Z" fill="#372128"/>
<path d="M17.864 11.944C17.8802 11.87 17.8333 11.7969 17.7593 11.7806L17.7582 11.7804L17.7564 11.78L17.751 11.7789C17.7467 11.7781 17.7407 11.777 17.7333 11.7759C17.7185 11.7735 17.6978 11.7706 17.672 11.7682C17.6205 11.7634 17.5482 11.7603 17.4614 11.7666C17.288 11.7791 17.0551 11.829 16.8171 11.9785C16.753 12.0187 16.7337 12.1033 16.7739 12.1675C16.8142 12.2316 16.8988 12.2509 16.9629 12.2107C17.155 12.0901 17.3421 12.0501 17.4811 12.0401C17.5507 12.0351 17.6077 12.0376 17.6465 12.0412L17.7013 12.0486C17.775 12.0645 17.8478 12.0177 17.864 11.944Z" fill="#372128"/>
<path d="M23.05 20L19.93 22H19.88H12.17H12.12L9 20L9.45 23.17L10 24.1C12.26 25.45 13.39 26 16.02 26C18.65 26 19.74 25.3 22 23.94L22.5 23.01L23.05 20Z" fill="#9B9B9B"/>
<path d="M9.13993 28L8.67993 22.96H11.6099L11 28H9.13993Z" fill="#966661"/>
<path d="M21 28L20.47 22.96H23.24L22.86 28H21Z" fill="#966661"/>
<path d="M18.8525 10.61C18.7127 10.36 18.4984 10.18 18.2654 10.09C18.0045 9.99 17.7808 9.81 17.6317 9.56C17.4453 9.22 17.1005 9 16.6997 9C16.5506 9 16.4015 9.03 16.2711 9.09C16.094 9.17 15.889 9.17 15.7119 9.09C15.5814 9.03 15.4416 9 15.2832 9C14.8918 9 14.5563 9.22 14.3606 9.54C14.2115 9.8 13.9878 9.99 13.7175 10.09C13.4659 10.18 13.2516 10.37 13.1118 10.65C12.9347 11.04 12.972 11.51 13.1956 11.86C13.2636 11.9653 13.307 12.0837 13.3211 12.2046C13.415 12.1391 13.5245 12.0945 13.643 12.0775V11.99C13.643 11.07 14.3419 10.32 15.1993 10.32H15.7958C15.9262 10.32 16.0381 10.4 16.0847 10.53C16.2711 10.96 16.6718 11.24 17.1191 11.24H17.7715C18.1256 11.26 18.4052 11.57 18.4145 11.95L18.4061 12.0862C18.5136 12.109 18.6125 12.1547 18.6976 12.2181C18.71 12.0925 18.7541 11.9692 18.8246 11.86C19.0389 11.5 19.0669 11.02 18.8525 10.61Z" fill="#2D242D"/>
<path d="M2 6.13C2 6.0582 2.0582 6 2.13 6H3V7H2.13C2.0582 7 2 6.9418 2 6.87V6.13Z" fill="#9B9B9B"/>
<path d="M26 6H6V7H26V6Z" fill="#9B9B9B"/>
<path d="M29.87 6C29.9418 6 30 6.0582 30 6.13V6.87C30 6.9418 29.9418 7 29.87 7H29V6H29.87Z" fill="#9B9B9B"/>
<path d="M8.51515 23H11.4747C11.7576 23 11.9899 22.7677 12 22.4848V21C12 19.899 11.101 19 10 19C8.89899 19 8 19.899 8 21V22.4848C8 22.7677 8.23232 23 8.51515 23Z" fill="#533566"/>
<path d="M20.106 23H22.9038C23.2371 23 23.5098 22.7273 23.4997 22.3939V21C23.4997 19.899 22.6008 19 21.4999 19C20.3989 19 19.5 19.899 19.5 21V22.3939C19.5 22.7273 19.7727 23 20.106 23Z" fill="#533566"/>
<path d="M9.75 5.375C9.75 5.16789 9.58211 5 9.375 5C9.16789 5 9 5.16789 9 5.375V5.5H8.99251C8.95778 5.32881 8.80644 5.19995 8.625 5.19995C8.44356 5.19995 8.29222 5.32881 8.25749 5.5H8.22866C8.17718 5.35435 8.03828 5.25 7.875 5.25C7.66789 5.25 7.5 5.41789 7.5 5.625V6.125C7.5 6.33211 7.66789 6.5 7.875 6.5C8.03828 6.5 8.17718 6.39565 8.22866 6.25H8.25082C8.26371 6.44543 8.42631 6.59995 8.625 6.59995C8.82369 6.59995 8.98629 6.44543 8.99918 6.25L9 6.375C9 6.58211 9.16789 6.75 9.375 6.75C9.58211 6.75 9.75 6.58211 9.75 6.375C9.75 6.58211 9.91789 6.75 10.125 6.75C10.3321 6.75 10.5 6.58211 10.5 6.375V5.625C10.5 5.41789 10.3321 5.25 10.125 5.25C9.96172 5.25 9.82282 5.35435 9.77134 5.5H9.75V5.375Z" fill="#966661"/>
<path d="M22.25 5.375C22.25 5.16789 22.4179 5 22.625 5C22.8321 5 23 5.16789 23 5.375V5.5H23.0075C23.0422 5.32881 23.1936 5.19995 23.375 5.19995C23.5564 5.19995 23.7078 5.32881 23.7425 5.5H23.7713C23.8228 5.35435 23.9617 5.25 24.125 5.25C24.3321 5.25 24.5 5.41789 24.5 5.625V6.125C24.5 6.33211 24.3321 6.5 24.125 6.5C23.9617 6.5 23.8228 6.39565 23.7713 6.25H23.7492C23.7363 6.44543 23.5737 6.59995 23.375 6.59995C23.1763 6.59995 23.0137 6.44543 23.0008 6.25L23 6.375C23 6.58211 22.8321 6.75 22.625 6.75C22.4179 6.75 22.25 6.58211 22.25 6.375C22.25 6.58211 22.0821 6.75 21.875 6.75C21.6679 6.75 21.5 6.58211 21.5 6.375V5.625C21.5 5.41789 21.6679 5.25 21.875 5.25C22.0383 5.25 22.1772 5.35435 22.2287 5.5H22.25V5.375Z" fill="#966661"/>
<path d="M10.625 7.5C10.4179 7.5 10.25 7.33211 10.25 7.125C10.25 6.91789 10.4179 6.75 10.625 6.75C10.8321 6.75 11 6.91789 11 7.125C11 7.33211 10.8321 7.5 10.625 7.5Z" fill="#8B5C56"/>
<path d="M21.375 7.5C21.5821 7.5 21.75 7.33211 21.75 7.125C21.75 6.91789 21.5821 6.75 21.375 6.75C21.1679 6.75 21 6.91789 21 7.125C21 7.33211 21.1679 7.5 21.375 7.5Z" fill="#8B5C56"/>
<path d="M5.9 2C5.40294 2 5 2.40294 5 2.9V4.4C5 3.90294 4.59706 3.5 4.1 3.5H3.9C3.40294 3.5 3 3.90294 3 4.4V8.6C3 9.09706 3.40294 9.5 3.9 9.5H4.1C4.59706 9.5 5 9.09706 5 8.6V10.1C5 10.5971 5.40294 11 5.9 11H6.1C6.59706 11 7 10.5971 7 10.1V2.9C7 2.40294 6.59706 2 6.1 2H5.9Z" fill="#533566"/>
<path d="M25.9 2C25.4029 2 25 2.40294 25 2.9V10.1C25 10.5971 25.4029 11 25.9 11H26.1C26.5971 11 27 10.5971 27 10.1V8.6C27 9.09706 27.4029 9.5 27.9 9.5H28.1C28.5971 9.5 29 9.09706 29 8.6V4.4C29 3.90294 28.5971 3.5 28.1 3.5H27.9C27.4029 3.5 27 3.90294 27 4.4V2.9C27 2.40294 26.5971 2 26.1 2H25.9Z" fill="#533566"/>
</svg>

<svg xmlns="http://www.w3.org/2000/svg" width="32" height="32" fill="none"><path fill="#533566" d="M11 30v-2.5l-1.898.5s-.53.38-1.917 1.2c-.307.18-.14.8-.14.8H11ZM21.01 30 21 27.5l1.892.5s.36.38 1.92 1.2c.312.16.142.8.142.8h-3.945Z"/><path fill="#966661" d="M14.5 14.878 12.323 16 7.86 7.013c-.254-.516-.058-.665.44-.924l.244-.06c-.489.25 2.313 1.51 1.552-.029l4.403 8.878ZM17.5 14.878 19.677 16l4.462-8.987c.254-.516.058-.665-.44-.924l-.244-.06c.489.25-2.313 1.51-1.552-.029L17.5 14.878Z"/><path fill="#FF6723" d="M21.155 13.483a.253.253 0 0 0-.112-.324L18.5 11.8 18 14l.04.07a3.84 3.84 0 0 0-2.04-.6c-.74 0-1.43.22-2.02.59l.03-.06-.46-2.2-2.59 1.36a.253.253 0 0 0-.115.325c.293.67 1.155 2.744 1.155 3.865V22h8v-4.65c0-1.122.864-3.198 1.155-3.867Z"/><path fill="#2D242D" d="M13.4 13c.13.09.28.15.45.15l.05.72c.03.21.08.4.17.58-.4-.16-.67-.55-.67-.99V13ZM18 14.43c.08-.17.13-.36.16-.56l.05-.72c.15-.01.3-.06.42-.15v.46c0 .42-.25.8-.63.97Z"/><path fill="#8B5C56" d="M14.5 12.82a.75.75 0 1 1-1.5 0 .75.75 0 0 1 1.5 0ZM19 12.82a.75.75 0 1 1-1.5 0 .75.75 0 0 1 1.5 0Z"/><path fill="#966661" d="M16.53 9.28h-1.064c-1.189 0-2.088 1.02-1.952 2.286l.174 2.801c.125.95.918 1.663 1.856 1.663h.909c.938 0 1.73-.713 1.856-1.663l.174-2.8c.155-1.218-.764-2.287-1.953-2.287Z"/><path fill="#990838" d="M15.993 14.68c-.24 0-.454-.06-.64-.17-.062-.04-.134.04-.09.11.16.27.428.45.739.45.31 0 .578-.18.738-.45.035-.07-.027-.15-.09-.11-.204.11-.417.17-.657.17Z"/><path fill="#75443E" d="m15.82 13.135-.26.84c-.05.17.08.35.25.35h.38c.18 0 .31-.17.25-.35l-.26-.84c-.04-.18-.3-.18-.36 0Z"/><path fill="#fff" d="M14.253 13.19a.644.644 0 0 1 .629-.49c.314 0 .582.222.628.517.018.074-.037.13-.102.13h-1.035a.128.128 0 0 1-.12-.157ZM17.76 13.19a.644.644 0 0 0-.628-.49.629.629 0 0 0-.628.517c-.019.074.037.13.101.13h1.035a.128.128 0 0 0 .12-.157Z"/><path fill="#7D4533" d="M14.567 13.236c0-.231.185-.416.416-.416.222 0 .407.185.416.416 0 .037-.01.074-.018.11h-.795a.46.46 0 0 1-.019-.11ZM17.446 13.236a.414.414 0 0 0-.416-.416.426.426 0 0 0-.416.416c0 .037.01.074.019.11h.795c.009-.036.018-.073.018-.11Z"/><path fill="#fff" d="M14.908 13.07a.073.073 0 1 1-.147-.001.073.073 0 0 1 .147 0ZM16.983 13.07a.073.073 0 1 1-.147 0 .073.073 0 0 1 .147 0Z"/><path fill="#000" d="M14.974 12.996c.139 0 .24.11.24.24 0 .037-.01.074-.037.11h-.416a.239.239 0 0 1 .213-.351ZM17.04 12.996c-.139 0-.24.11-.24.24 0 .037.009.074.037.11h.415a.239.239 0 0 0-.213-.351Z"/><path fill="#372128" d="M14.322 12.03h.002l.01-.002a1.018 1.018 0 0 1 .211.004 1.1 1.1 0 0 1 .506.194.137.137 0 0 0 .158-.223 1.374 1.374 0 0 0-.923-.245h-.006l-.001.001h-.002a.137.137 0 0 0 .045.27ZM17.864 11.944a.137.137 0 0 0-.105-.163l-.003-.001-.005-.001a1.282 1.282 0 0 0-.29-.012 1.397 1.397 0 0 0-.644.212.137.137 0 0 0 .146.232 1.123 1.123 0 0 1 .683-.17l.055.008a.137.137 0 0 0 .163-.105Z"/><path fill="#9B9B9B" d="m23.05 20-3.12 2h-7.81L9 20l.45 3.17.55.93c2.26 1.35 3.39 1.9 6.02 1.9 2.63 0 3.72-.7 5.98-2.06l.5-.93.55-3.01Z"/><path fill="#966661" d="m9.14 28-.46-5.04h2.93L11 28H9.14ZM21 28l-.53-5.04h2.77L22.86 28H21Z"/><path fill="#2D242D" d="M18.852 10.61c-.14-.25-.354-.43-.587-.52-.26-.1-.484-.28-.633-.53a1.056 1.056 0 0 0-1.36-.47.681.681 0 0 1-.56 0c-.13-.06-.27-.09-.429-.09-.391 0-.727.22-.922.54-.15.26-.373.45-.644.55-.251.09-.465.28-.605.56-.177.39-.14.86.084 1.21a.811.811 0 0 1 .125.345.747.747 0 0 1 .322-.127v-.088c0-.92.699-1.67 1.556-1.67h.597c.13 0 .242.08.289.21.186.43.587.71 1.034.71h.652c.355.02.634.33.643.71l-.008.136a.747.747 0 0 1 .292.132.81.81 0 0 1 .127-.358c.214-.36.242-.84.027-1.25Z"/><path fill="#9B9B9B" d="M2 6.13A.13.13 0 0 1 2.13 6H3v1h-.87A.13.13 0 0 1 2 6.87v-.74ZM26 6H6v1h20V6ZM29.87 6a.13.13 0 0 1 .13.13v.74a.13.13 0 0 1-.13.13H29V6h.87Z"/><path fill="#533566" d="M8.515 23h2.96a.533.533 0 0 0 .525-.515V21c0-1.101-.899-2-2-2s-2 .899-2 2v1.485c0 .283.232.515.515.515ZM20.106 23h2.798a.593.593 0 0 0 .596-.606V21c0-1.101-.9-2-2-2-1.101 0-2 .899-2 2v1.394c0 .333.273.606.606.606Z"/><path fill="#966661" d="M9.75 5.375a.375.375 0 1 0-.75 0V5.5h-.007a.375.375 0 0 0-.736 0H8.23a.375.375 0 0 0-.729.125v.5a.375.375 0 0 0 .729.125h.022a.375.375 0 0 0 .748 0L9 6.375a.375.375 0 1 0 .75 0 .375.375 0 1 0 .75 0v-.75a.375.375 0 0 0-.729-.125H9.75v-.125ZM22.25 5.375a.375.375 0 0 1 .75 0V5.5h.008a.375.375 0 0 1 .735 0h.028a.375.375 0 0 1 .729.125v.5a.375.375 0 0 1-.729.125h-.022a.375.375 0 0 1-.748 0L23 6.375a.375.375 0 0 1-.75 0 .375.375 0 0 1-.75 0v-.75a.375.375 0 0 1 .729-.125h.021v-.125Z"/><path fill="#8B5C56" d="M10.625 7.5a.375.375 0 1 1 0-.75.375.375 0 0 1 0 .75ZM21.375 7.5a.375.375 0 1 0 0-.75.375.375 0 0 0 0 .75Z"/><path fill="#533566" d="M5.9 2a.9.9 0 0 0-.9.9v1.5a.9.9 0 0 0-.9-.9h-.2a.9.9 0 0 0-.9.9v4.2a.9.9 0 0 0 .9.9h.2a.9.9 0 0 0 .9-.9v1.5a.9.9 0 0 0 .9.9h.2a.9.9 0 0 0 .9-.9V2.9a.9.9 0 0 0-.9-.9h-.2ZM25.9 2a.9.9 0 0 0-.9.9v7.2a.9.9 0 0 0 .9.9h.2a.9.9 0 0 0 .9-.9V8.6a.9.9 0 0 0 .9.9h.2a.9.9 0 0 0 .9-.9V4.4a.9.9 0 0 0-.9-.9h-.2a.9.9 0 0 0-.9.9V2.9a.9.9 0 0 0-.9-.9h-.2Z"/></svg>
